public/svg/x-icon.svg

<svg width="22" height="22" viewBox="0 0 22 22" fill="none" xmlns="http://www.w3.org/2000/svg">
<path d="M17.3263 0H20.6998L13.3297 9.31897L22 22H15.2112L9.89402 14.309L3.80996 22H0.434412L8.31745 12.0323L0 0H6.96106L11.7674 7.02986L17.3263 0ZM16.1423 19.7661H18.0116L5.94541 2.1165H3.93945L16.1423 19.7661Z" fill="#F9F5EB"/>
</svg>

<?xml version="1.0" encoding="UTF-8"?>
<svg id="a" data-name="Ebene_1" xmlns="http://www.w3.org/2000/svg" viewBox="0 0 22 22">
  <path d="M17.33,0h3.37l-7.37,9.32,8.67,12.68h-6.79l-5.32-7.69-6.08,7.69H.43l7.88-9.97L0,0h6.96l4.81,7.03L17.33,0ZM16.14,19.77h1.87L5.95,2.12h-2.01l12.2,17.65Z"/>
</svg>
